X:1
T:O Come, Little Children
T:O Come, Little Children
T:Johann Abraham Peter Schulz, 1790
T:Tr. by Ella May White Robinson, 1920
T:Public Domain Courtesy of the Cyber Hymnal™
C:Johann Abraham Peter Schulz, 1790
Z:Public Domain
Z:Courtesy of the Cyber Hymnal™
%%score ( 1 2 ) ( 3 4 )
L:1/8
Q:1/4=93
M:2/4
K:E
V:1 treble 
V:2 treble 
V:3 bass 
V:4 bass 
V:1
 [EB] | B2 G[EB] | B2 G[EB] | A2 FA | [EG]2 z [EB] | B2 G[EB] | B2 G[EB] | A2 FA | [EG]2 z [EG] | %9
w: 1.~O|come, lit- tle|child- ren, with|hur- ry- ing|feet; To|Beth- le- hem|has- ten, a|Ba- by to|greet. God|
w: 2.~He|lies in a|man- ger, the|beau- ti- ful|Boy, His|mo- ther and|fa- ther bend|o’er Him with|joy; Some|
w: 3.~See,|out from the|man- ger there|streams a clear|light, That|scat- ters the|dark- ness and|shines through the|night; The|
w: 4.~O|kneel like the|shep- herds, your|hands fold in|prayer, Give|thanks, lit- tle|child- ren, for|Je- sus so|fair; We’ll|
 [DF]2 [DF][DF] | [FA]2 [FA][FA] | [EG]2 [EG][EG] | [Ec]2 z [Ec] | [EB]2 [EB][EB] | e2 B[EG] | %15
w: shows His great|kind- ness on|this ho- ly|night, By|send- ing the|Christ- child to|
w: shep- herds kneel|pray- ing, their|hearts full of|love; The|song of the|an- gels floats|
w: face of the|Ba- by who|lies in that|glow Is|fair- er and|bright- er than|
w: join with the|an- gels, our|voic- es we’ll|raise, And|sing to our|Fa- ther a|
 [CA]2 [EG][DF] | !fermata!E3 |] %17
w: bring us de-|light.|
w: down from a-|bove.|
w: an- gels, we|know.|
w: glad song of|praise.|
V:2
 x | E3 x | E3 x | D4 | x4 | E3 x | E3 x | D4 | x4 | x4 | x4 | x4 | x4 | x4 | G3 x | x4 | E3 |] %17
V:3
 [G,B,] | B,3 [G,B,] | B,3 [G,B,] | B,4 | [E,B,]2 z [G,B,] | B,3 [G,B,] | B,3 [G,B,] | B,4 | %8
 [E,B,]2 z [E,B,] | B,2 B,B, | [F,C]2 [F,C][F,C] | [C,C]2 CB, | [A,C]2 z A, | %13
 [G,B,]2 [G,B,][G,B,] | [E,B,]3 [G,B,] | [F,A,]2 B,A, | !fermata![E,G,]3 |] %17
V:4
 x | G,2 E, x | G,2 E, x | F,2 B,,2 | x4 | G,2 E, x | G,2 E, x | F,2 B,,2 | x4 | x4 | x4 | x4 | %12
 x4 | x4 | x4 | x2 B,,2 | x3 |] %17

